X: 10
T: JIGS: Breeches Mary Set
T: Breeches Mary
C: C: Trad.; S: Denis Murphy & Julia Clifford
C: Set Leaders: Anton
Z: Anton Zille ed. arr., Oleg Naumov arr.; ceolachan / GaryAMartin at The Session
N: https://thesession.org/members/26966/sets/94456
R: Jig
M: 6/8
L: 1/8
Q: 3/8=116
K: Ador
|:"Am"eAA BAB|"G"GBd dBd|"Em"egg "(D/F#)"dgg|"Em"BAB "G"GBd|
"Am"eAA BAB|"G"GBd dBd|"C"e/f/ge "D"dBA|1 "G"BGG G2g:|2 "G"BGG G2d||
K: Gmaj
|:"Am"e2a bag|"G/B"egg ged|"C"egg dgg|"Em"BAB GBd|
"Am"eaa bag|"G/B"egg ged|"C"e/f/ge "D"dBA|1 "G"BGG "(Em)"G2d:|2 "G"BGG "(Em)"G2g||
T: Tenpenny Bit
K: Gmaj
|:"D"edB "G"G2A|Bed Bcd|"C"edB G2A|"D"BAB gfg|
"G (Em)"edB G2A|Bed "Em"Bcd|"C"eag edB|1 "D"BAG A2g:|2 "D"BAG ABd||
|:"Em (A5)"e2f gfg|"D (A5)"eaa ged|"C (A5)"e2f gfg|"D (A5)"efg "D/F# (D)"a3|
"G (A5)"aba "D (A5)"age|"G"ged "A5"^cde|"C"eag edB|1 "D"BAG ABd:|2 "D"BAG A2g||

